!!!COM: Baumanis, Karlis
!!!CDT: 1834-1904
!!!OTL: National Anthem, Latvia
!!!ENC: Davis, Matthew J.
!!Vocal Line Only
**kern
*clefG2
*k[f#]
*G:
*M4/4
=1-
2g
4g
4g
=2
4.b
8a
2g
=3
2a
4a
4a
=4
4.cc
8b
2a
=5
2b
4b
4b
=6
4.dd
8cc
4b
4b
=7
2a
4b
4cc#
=8
!First Ending
1dd
==:|!9
!Second Ending
1dd
==!|:10
2a
4a
4cc
=11
4.b
8a
2g
=12
2b
4b
4dd
=13
4.cc
8b
2a
=14
2cc
4cc
4ee
=15
4.dd
8cc
4b
4b
=16
!First Ending
2b
4a
4cc
=17
1b
==:|!18
!Second Ending
2b
2a
=19
1g
==|!
*-
